X:1
T: The Birks of Delhandy
C:Alexander Walker
R:Strathspey
Q:128
K:D
M:4/4
L:1/16
|:F3E|D4 F3G A4 G3F|G3A B3G A4 F3E|D4 d3c B3A G3F|E12 F3E|
D4 F3G A4 GF3|G3A BG3 A4 G3F|G3A AG3 AA,3 B,3C|D12:|
d3e|f3e d3c d4 c3d|B3c B3A F4 E3D|d3c d3e f3e d3c|B12 F3E|
D3E FG3 A4 GF3|G3B F3d E4 F3E|Dd3 f3G A3A, B,3C|D12 d3e|
f6g2 e6f2|d6e2 B6d2|D4 d3c B3A G3F|E12 F3E|
D6F2 B,6D2|A,4D4 F4 f3e|F3G AA,3 B,4 C4|D12||
